__todo__/mysql.svg

<svg height="349" preserveAspectRatio="xMidYMid" viewBox="0 0 512 349" width="512" xmlns="http://www.w3.org/2000/svg"><path d="m152.309482 230.297132 15.560488 50.487113c3.495602 11.46279 4.953626 19.464959 4.370416 24.026061 8.510475-22.792067 14.455924-47.630505 17.83848-74.513174h18.709943c-8.044578 43.765682-18.655705 75.570272-31.826678 95.410714-10.262237 15.287895-21.504413 22.93169-33.746334 22.93169-3.263415 0-7.287685-.985606-12.063058-2.943987v-10.550202c2.33284.342487 5.07033.525188 8.218566.525188 5.711129 0 10.313733-1.582592 13.815429-4.741359 4.193382-3.848936 6.291901-8.175093 6.291901-12.969307 0-3.274559-1.636887-9.993851-4.895732-20.158182l-21.680534-67.504555zm-119.0854164-31.031625 28.5007977 86.956987h.1748929l28.6756996-86.956987h23.4280302c5.130052 43.124091 8.159453 82.581946 9.090029 118.34607h-19.752325c-.694733-33.433009-2.620483-64.870975-5.7681096-94.320009h-.1740001l-30.0779627 94.320009h-15.0412666l-29.8957477-94.320009h-.1761209c-2.2182691 28.281949-3.6138286 59.719915-4.1958195 94.320009h-18.0121629c1.1639819-42.079214 4.07698373-81.524848 8.73900548-118.34607z" fill="#00758f"/><path d="m352.497915 197.509381c30.656601 0 45.986426 19.586861 45.986426 58.739197 0 21.276384-4.610222 37.34702-13.821523 48.204881-1.660655 1.983739-3.494963 3.697398-5.426837 5.285795l21.69516 10.726793-.02133-.001222-7.703001 13.302017-28.252461-16.48492c-4.683351 1.386753-9.835952 2.079977-15.451707 2.079977-15.052541 0-26.296241-4.387261-33.731099-13.149563-8.160061-9.694137-12.237045-24.955146-12.237045-45.75767 0-21.155704 4.60108-37.165848 13.815429-48.036846 8.391639-9.943746 20.110682-14.908439 35.147988-14.908439zm-93.880321.172924c10.957275 0 20.921204 2.932071 29.894834 8.775133l-4.558421 10.156388c-7.678625-3.264171-15.250601-4.902673-22.71593-4.902673-6.057581 0-10.725697 1.458245-13.979971 4.391845-3.272557 2.908241-5.295813 6.650856-5.295813 11.212263 0 7.008925 4.994153 13.08846 14.214596 18.224855 2.480535 1.348719 5.711382 3.147248 9.031265 5.011267l.687925.386468c.114794.064525.229639.129096.344509.193698l.689297.387853c.11486.064661.22969.129322.344463.193966l.687739.387536c6.980677 3.935354 13.548167 7.691395 13.548167 7.691395 9.220443 6.544841 13.815429 13.522603 13.815429 25.015639 0 10.036625-3.677817 18.276182-11.009075 24.722951-7.337352 6.418356-17.194633 9.636088-29.538326 9.636088-11.54536 0-22.734212-3.703508-33.572651-11.050032l5.07033-10.165859c9.327091 4.674755 17.767483 7.00923 25.345553 7.00923 7.108822 0 12.672777-1.586257 16.697961-4.720277 4.016042-3.156629 6.42323-7.559166 6.42323-13.143148 0-7.026951-4.887505-13.033466-13.855041-18.0724-2.32844-1.281178-5.31079-2.954321-8.395042-4.697606l-.686842-.38842c-1.261463-.713742-2.533054-1.435169-3.777444-2.142519l-.675836-.3843c-6.054207-3.443784-11.28934-6.452972-11.28934-6.452972-8.964489-6.556756-13.458922-13.591956-13.458922-25.183675 0-9.586899 3.35178-17.335792 10.0462-23.231404 6.709655-5.907527 15.366389-8.86129 25.967156-8.86129zm175.895339 1.583202v103.788061h37.238279v14.558009h-56.124038v-118.34607zm57.930952 103.833584v2.459433h-4.095266v12.040832h-3.129344v-12.040832h-4.253714v-2.459433zm7.559819 0 3.930724 9.883864 3.610782-9.883864h4.436538v14.500265h-2.949597v-11.035673l-4.110502 11.035673h-2.126826l-4.116596-11.035673h-.158478v11.035673h-2.791089v-14.500265zm-149.434587-91.035368c-18.066096 0-27.103714 14.909662-27.103714 44.709737 0 17.069686 2.394999 29.449034 7.175857 37.163404 4.427397 7.140604 11.362535 10.702962 20.805414 10.702962 18.066096 0 27.103715-15.025453 27.103715-45.06414 0-16.831074-2.394999-29.103185-7.169763-36.821221-4.433491-7.124717-11.365582-10.690742-20.811509-10.690742z" fill="#f29111"/><path d="m303.217602 7.33321895c5.993593-14.72604444 26.948314-3.57457925 35.080952 1.57037072 1.992786 1.28623753 4.278091 4.00536183 6.563396 5.01052133 3.565075.140539 7.127103.4185619 10.698273.5682665 6.697467 1.5734259 12.97139 2.8596634 18.24892 5.8659762 24.528938 14.4449664 40.495601 29.1649004 55.191634 53.4781497 3.138486 5.1510604 4.707759 10.7237378 7.273364 16.2964152 3.558981 8.3070777 7.559788 17.0266074 11.691619 24.8824324 1.849573 3.723673 3.281667 7.864991 5.85038 11.009704 1.002487 1.438081 3.851531 1.861531 5.554814 2.720957 4.707728 2.436825 10.411849 4.286746 14.839246 7.147326 8.269756 5.155643 16.265276 11.299642 23.532545 17.589068 2.708848 2.428576 4.555374 5.865702 7.136245 8.433869v1.296014c-2.291399.703001-4.573656 1.422805-6.858961 1.999015-4.991106 1.283182-9.412409.992938-14.254208 2.276121-2.992226.86737-6.706608 2.013065-9.845093 2.303312.140166.140844.289472.292373.289472.292373 1.846526 5.274796 11.834832 9.565207 16.402394 12.719392 5.54872 4.004139 10.689133 8.86129 14.827058 14.437023 1.429077 1.423721 2.858154 2.718818 4.281137 4.137651.993346 1.438081 1.273646 3.297473 2.279211 4.580656v.432921c-1.113874-.393102-1.914578-1.142455-2.674319-1.926928l-.453106-.472329c-.452547-.471405-.909947-.932332-1.430996-1.313417-3.147627-2.150553-6.273924-4.722416-9.42155-6.721431-5.411602-3.433429-11.688572-5.426639-17.246434-8.873206-3.141532-2.001459-6.136835-4.28094-9.132077-6.569893-2.714943-2.007264-5.704121-5.862005-7.410482-8.721668-1.005504-1.579842-1.142652-3.437095-2.291399-4.579128.205554-1.909448 1.954845-2.477121 3.71902-2.943252l.406686-.106331c.608337-.158485 1.204366-.316235 1.724674-.52469 7.413529-3.14838 16.253088-4.290397 27.667423-4.00414-.429698-2.866373-7.562926-6.43698-9.839059-8.153084-4.57061-3.294112-9.409362-6.731208-14.257255-9.728966-2.568683-1.570676-6.996049-2.716375-9.842046-3.999251-3.8515-1.574037-12.410729-3.147158-14.54368-6.144916-3.625079-4.725941-6.229133-10.362955-8.757366-16.057583l-.688349-1.553867c-.229296-.518005-.458676-1.035844-.68885-1.552877-2.989178-6.856777-6.700513-14.0059352-9.695786-21.0267755-1.566196-3.4248747-2.285305-6.4311875-4.000807-9.7155231-10.405754-20.1581828-25.808709-37.0350852-44.484219-48.9045214-6.136805-3.8617677-12.980531-7.436347-20.534225-9.8652277-4.281138-1.2923479-9.418503-.5774321-13.979972-1.5703708h-3.001336c-2.562588-.7210262-4.701664-3.4371259-6.700514-4.8699823-4.415208-2.9971472-8.836511-5.0105213-14.117089-7.14915849-1.849573-.85851006-7.133168-2.85657765-8.976677-1.28318229-1.142653.28718841-1.721596.71800159-2.001897 1.86370007-1.136588 1.71090971-.137149 4.28643991.569803 5.86292101 2.142092 4.5705731 5.134318 7.2866423 7.84926 11.14841 2.416329 3.4248746 5.417696 7.2866423 7.130151 11.0109262 3.6961 8.0046133 5.417696 16.8738472 8.842606 24.8784605 1.270629 3.009368 3.27862 6.4342427 5.128224 9.1503119 1.566195 2.1539131 4.415239 3.7120936 5.27753 6.440353 1.71855 2.8596634-2.571729 12.2971331-3.565075 15.2943109-3.714413 11.726759-2.995303 28.027145 1.282787 38.193004.076245.177365.1522.356165.228142.536025l.228061.542377c1.561894 3.722783 3.233735 7.731779 7.386963 8.773383.286425-.28413 0-.134746.566756-.28413 1.005564-7.868351 1.288912-15.445237 4.000807-21.601152 1.566195-3.848936 4.69557-6.569893 6.840679-9.712162 1.429077.85576 1.429077 3.437065 2.282288 5.14495 1.855667 4.430034 3.848484 9.287184 6.136805 13.730356 4.69554 9.150312 9.979164 18.021073 15.966663 26.025381 2.004974 2.858136 4.85091 6.005324 7.416575 8.580823 1.142683.996544 2.422424 1.572815 3.281698 2.855936h.280331v.432005c-4.278091-1.577703-6.989986-6.003154-10.402707-8.586934-6.42323-4.85715-14.11709-12.15143-18.544487-19.150884-1.85262-4.017277-3.854578-7.868352-5.85038-11.866381v-.288997c-.853211 1.142398-.566786 2.276059-.993346 4.004139-1.85262 7.145187-.42659 15.296205-6.843726 17.865564-7.273363 3.009979-12.700201-4.85715-14.976364-8.431424-7.276411-11.866381-9.269196-31.884025-4.137925-48.0429563 1.139605-3.5776344 1.295006-7.8671295 3.284744-10.7237377-.429637-2.5816406-2.419406-3.2874214-3.571169-4.8699824-1.995833-2.7038484-3.705241-5.8537859-5.268389-8.857013-3.001367-5.8659762-5.137366-12.8745957-7.416576-19.1652441-1.002487-2.5694198-1.288882-5.1480052-2.288352-7.5799412-1.703314-3.712063-4.844877-7.4363469-7.267269-10.7206825-3.281698-4.7202778-12.837319-13.8675344-8.985819-23.16755085zm46.772541 28.01485445c.380884.3818995.840992.7159376 1.316787 1.0444312l.574417.3942391c.765085.5293256 1.505267 1.0877893 1.960296 1.8487205.719079 1.0051595.853181 1.9980982 1.715502 3.0063434 0 3.4370954-.996423 5.7224125-3.007461 7.1461033 0 0-.137118.1497657-.277253.2902742-1.139636-2.291397-2.139045-4.5705121-3.287792-6.8589149-1.413842-1.9980982-3.412752-3.5837449-4.564515-5.8659762h-.277284v-.2871579c1.721597-.4247028 3.427988-.7180627 5.847333-.7180627z" fill="#00758f"/></svg>

<?xml version="1.0" encoding="UTF-8"?>
<svg width="512px" height="349px" viewBox="0 0 512 349" version="1.1" xmlns="http://www.w3.org/2000/svg" xmlns:xlink="http://www.w3.org/1999/xlink" preserveAspectRatio="xMidYMid">
    <title>MySQL</title>
    <g>
				<path d="M152.309482,230.297132 L167.86997,280.784245 C171.365572,292.247035 172.823596,300.249204 172.240386,304.810306 C180.750861,282.018239 186.69631,257.179801 190.078866,230.297132 L208.788809,230.297132 C200.744231,274.062814 190.133104,305.867404 176.962131,325.707846 C166.699894,340.995741 155.457718,348.639536 143.215797,348.639536 C139.952382,348.639536 135.928112,347.65393 131.152739,345.695549 L131.152739,335.145347 C133.485579,335.487834 136.223069,335.670535 139.371305,335.670535 C145.082434,335.670535 149.685038,334.087943 153.186734,330.929176 C157.380116,327.08024 159.478635,322.754083 159.478635,317.959869 C159.478635,314.68531 157.841748,307.966018 154.582903,297.801687 L132.902369,230.297132 L152.309482,230.297132 Z M33.2240656,199.265507 L61.7248633,286.222494 L61.8997562,286.222494 L90.5754558,199.265507 L114.003486,199.265507 C119.133538,242.389598 122.162939,281.847453 123.093515,317.611577 L103.34119,317.611577 C102.646457,284.178568 100.720707,252.740602 97.5730804,223.291568 L97.3990803,223.291568 L67.3211176,317.611577 L52.279851,317.611577 L22.3841033,223.291568 L22.2079824,223.291568 C19.9897133,251.573517 18.5941538,283.011483 18.0121629,317.611577 L1.41179433e-16,317.611577 C1.1639819,275.532363 4.07698373,236.086729 8.73900548,199.265507 L33.2240656,199.265507 Z" fill="#00758F" fill-rule="nonzero"></path>
				<path d="M352.497915,197.509381 C383.154516,197.509381 398.484341,217.096242 398.484341,256.248578 C398.484341,277.524962 393.874119,293.595598 384.662818,304.453459 C383.002163,306.437198 381.167855,308.150857 379.235981,309.739254 L379.235981,309.739254 L400.931141,320.466047 L400.909811,320.464825 L393.20681,333.766842 L364.954349,317.281922 C360.270998,318.668675 355.118397,319.361899 349.502642,319.361899 C334.450101,319.361899 323.206401,314.974638 315.771543,306.212336 C307.611482,296.518199 303.534498,281.25719 303.534498,260.454666 C303.534498,239.298962 308.135578,223.288818 317.349927,212.41782 C325.741566,202.474074 337.460609,197.509381 352.497915,197.509381 Z M258.617594,197.682305 C269.574869,197.682305 279.538798,200.614376 288.512428,206.457438 L283.954007,216.613826 C276.275382,213.349655 268.703406,211.711153 261.238077,211.711153 C255.180496,211.711153 250.51238,213.169398 247.258106,216.102998 C243.985549,219.011239 241.962293,222.753854 241.962293,227.315261 C241.962293,234.324186 246.956446,240.403721 256.176889,245.540116 C258.657424,246.888835 261.888271,248.687364 265.208154,250.551383 L265.896079,250.937851 C266.010873,251.002376 266.125718,251.066947 266.240588,251.131549 L266.929885,251.519402 C267.044745,251.584063 267.159575,251.648724 267.274348,251.713368 L267.962087,252.100904 C274.942764,256.036258 281.510254,259.792299 281.510254,259.792299 C290.730697,266.33714 295.325683,273.314902 295.325683,284.807938 C295.325683,294.844563 291.647866,303.08412 284.316608,309.530889 C276.979256,315.949245 267.121975,319.166977 254.778282,319.166977 C243.232922,319.166977 232.04407,315.463469 221.205631,308.116945 L226.275961,297.951086 C235.603052,302.625841 244.043444,304.960316 251.621514,304.960316 C258.730336,304.960316 264.294291,303.374059 268.319475,300.240039 C272.335517,297.08341 274.742705,292.680873 274.742705,287.096891 C274.742705,280.06994 269.8552,274.063425 260.887664,269.024491 C258.559224,267.743313 255.576874,266.07017 252.492622,264.326885 L251.80578,263.938465 C250.544317,263.224723 249.272726,262.503296 248.028336,261.795946 L247.3525,261.411646 C241.298293,257.967862 236.06316,254.958674 236.06316,254.958674 C227.098671,248.401918 222.604238,241.366718 222.604238,229.774999 C222.604238,220.1881 225.956018,212.439207 232.650438,206.543595 C239.360093,200.636068 248.016827,197.682305 258.617594,197.682305 Z M434.512933,199.265507 L434.512933,303.053568 L471.751212,303.053568 L471.751212,317.611577 L415.627174,317.611577 L415.627174,199.265507 L434.512933,199.265507 Z M492.443885,303.099091 L492.443885,305.558524 L488.348619,305.558524 L488.348619,317.599356 L485.219275,317.599356 L485.219275,305.558524 L480.965561,305.558524 L480.965561,303.099091 L492.443885,303.099091 Z M500.003704,303.099091 L503.934428,312.982955 L507.54521,303.099091 L511.981748,303.099091 L511.981748,317.599356 L509.032151,317.599356 L509.032151,306.563683 L504.921649,317.599356 L502.794823,317.599356 L498.678227,306.563683 L498.519749,306.563683 L498.519749,317.599356 L495.72866,317.599356 L495.72866,303.099091 L500.003704,303.099091 Z M350.569117,212.063723 C332.503021,212.063723 323.465403,226.973385 323.465403,256.77346 C323.465403,273.843146 325.860402,286.222494 330.64126,293.936864 L330.64126,293.936864 C335.068657,301.077468 342.003795,304.639826 351.446674,304.639826 C369.51277,304.639826 378.550389,289.614373 378.550389,259.575686 C378.550389,242.744612 376.15539,230.472501 371.380626,222.754465 C366.947135,215.629748 360.015044,212.063723 350.569117,212.063723 Z" fill="#F29111" fill-rule="nonzero"></path>
				<path d="M303.217602,7.33321895 C309.211195,-7.39282549 330.165916,3.7586397 338.298554,8.90358967 C340.29134,10.1898272 342.576645,12.9089515 344.86195,13.914111 C348.427025,14.05465 351.989053,14.3326729 355.560223,14.4823775 C362.25769,16.0558034 368.531613,17.3420409 373.809143,20.3483537 C398.338081,34.7933201 414.304744,49.5132541 429.000777,73.8265034 C432.139263,78.9775638 433.708536,84.5502412 436.274141,90.1229186 C439.833122,98.4299963 443.833929,107.149526 447.96576,115.005351 C449.815333,118.729024 451.247427,122.870342 453.81614,126.015055 C454.818627,127.453136 457.667671,127.876586 459.370954,128.736012 C464.078682,131.172837 469.782803,133.022758 474.2102,135.883338 C482.479956,141.038981 490.475476,147.18298 497.742745,153.472406 C500.451593,155.900982 502.298119,159.338108 504.87899,161.906275 L504.87899,161.906275 L504.87899,163.202289 C502.587591,163.90529 500.305334,164.625094 498.020029,165.201304 C493.028923,166.484486 488.60762,166.194242 483.765821,167.477425 C480.773595,168.344795 477.059213,169.49049 473.920728,169.780737 C474.060894,169.921581 474.2102,170.07311 474.2102,170.07311 C476.056726,175.347906 486.045032,179.638317 490.612594,182.792502 C496.161314,186.796641 501.301727,191.653792 505.439652,197.229525 C506.868729,198.653246 508.297806,199.948343 509.720789,201.367176 C510.714135,202.805257 510.994435,204.664649 512,205.947832 L512,205.947832 L512,206.380753 C510.886126,205.987651 510.085422,205.238298 509.325681,204.453825 L508.872575,203.981496 C508.420028,203.510091 507.962628,203.049164 507.441579,202.668079 C504.293952,200.517526 501.167655,197.945663 498.020029,195.946648 C492.608427,192.513219 486.331457,190.520009 480.773595,187.073442 C477.632063,185.071983 474.63676,182.792502 471.641518,180.503549 C468.926575,178.496285 465.937397,174.641544 464.231036,171.781881 C463.225532,170.202039 463.088384,168.344786 461.939637,167.202753 C462.145191,165.293305 463.894482,164.725632 465.658657,164.259501 L466.065343,164.15317 C466.67368,163.994685 467.269709,163.836935 467.790017,163.62848 C475.203546,160.4801 484.043105,159.338083 495.45744,159.62434 L495.45744,159.62434 C495.027742,156.757967 487.894514,153.18736 485.618381,151.471256 C481.047771,148.177144 476.209019,144.740048 471.361126,141.74229 C468.792443,140.171614 464.365077,139.025915 461.51908,137.743039 C457.66758,136.169002 449.108351,134.595881 446.9754,131.598123 C443.350321,126.872182 440.746267,121.235168 438.218034,115.54054 L437.529685,113.986673 C437.300389,113.468668 437.071009,112.950829 436.840835,112.433796 C433.851657,105.577019 430.140322,98.4278608 427.145049,91.4070205 C425.578853,87.9821458 424.859744,84.975833 423.144242,81.6914974 C412.738488,61.5333146 397.335533,44.6564122 378.660023,32.786976 C372.523218,28.9252083 365.679492,25.350629 358.125798,22.9217483 C353.84466,21.6294004 348.707295,22.3443162 344.145826,21.3513775 L344.145826,21.3513775 L341.14449,21.3513775 C338.581902,20.6303513 336.442826,17.9142516 334.443976,16.4813952 C330.028768,13.484248 325.607465,11.4708739 320.326887,9.33223671 C318.477314,8.47372665 313.193719,6.47565906 311.35021,8.04905442 C310.207557,8.33624283 309.628614,8.76705601 309.348313,9.91275449 C308.211725,11.6236642 309.211164,14.1991944 309.918116,15.7756755 C312.060208,20.3462486 315.052434,23.0623178 317.767376,26.9240855 C320.183705,30.3489601 323.185072,34.2107278 324.897527,37.9350117 C328.593627,45.939625 330.315223,54.8088589 333.740133,62.8134722 C335.010762,65.8228402 337.018753,69.2477149 338.868357,71.9637841 C340.434552,74.1176972 343.283596,75.6758777 344.145887,78.4041371 C345.864437,81.2638005 341.574158,90.7012702 340.580812,93.698448 C336.866399,105.425207 337.585509,121.725593 341.863599,131.891452 C341.939844,132.068817 342.015799,132.247617 342.091741,132.427477 L342.319802,132.969854 C343.881696,136.692637 345.553537,140.701633 349.706765,141.743237 C349.99319,141.459107 349.706765,141.608491 350.273521,141.459107 C351.279085,133.590756 351.562433,126.01387 354.274328,119.857955 C355.840523,116.009019 358.969898,113.288062 361.115007,110.145793 C362.544084,111.001553 362.544084,113.582858 363.397295,115.290743 C365.252962,119.720777 367.245779,124.577927 369.5341,129.021099 C374.22964,138.171411 379.513264,147.042172 385.500763,155.04648 C387.505737,157.904616 390.351673,161.051804 392.917338,163.627303 C394.060021,164.623847 395.339762,165.200118 396.199036,166.483239 L396.199036,166.483239 L396.479367,166.483239 L396.479367,166.915244 C392.201276,165.337541 389.489381,160.91209 386.07666,158.32831 C379.65343,153.47116 371.95957,146.17688 367.532173,139.177426 C365.679553,135.160149 363.677595,131.309074 361.681793,127.311045 L361.681793,127.311045 L361.681793,127.022048 C360.828582,128.164446 361.115007,129.298107 360.688447,131.026187 C358.835827,138.171374 360.261857,146.322392 353.844721,148.891751 C346.571358,151.90173 341.14452,144.034601 338.868357,140.460327 C331.591946,128.593946 329.599161,108.576302 334.730432,92.4173707 C335.870037,88.8397363 336.025438,84.5502412 338.015176,81.693633 C337.585539,79.1119924 335.59577,78.4062116 334.444007,76.8236506 C332.448174,74.1198022 330.738766,70.9698647 329.175618,67.9666376 C326.174251,62.1006614 324.038252,55.0920419 321.759042,48.8013935 C320.756555,46.2319737 320.47016,43.6533883 319.47069,41.2214523 C317.767376,37.5093893 314.625813,33.7851054 312.203421,30.5007698 C308.921723,25.780492 299.366102,16.6332354 303.217602,7.33321895 Z M349.990143,35.3480734 C350.371027,35.7299729 350.831135,36.064011 351.30693,36.3925046 L351.881347,36.7867437 C352.646432,37.3160693 353.386614,37.874533 353.841643,38.6354642 C354.560722,39.6406237 354.694824,40.6335624 355.557145,41.6418076 C355.557145,45.078903 354.560722,47.3642201 352.549684,48.7879109 C352.549684,48.7879109 352.412566,48.9376766 352.272431,49.0781851 C351.132795,46.7867881 350.133386,44.507673 348.984639,42.2192702 C347.570797,40.221172 345.571887,38.6355253 344.420124,36.353294 L344.420124,36.353294 L344.14284,36.353294 L344.14284,36.0661361 C345.864437,35.6414333 347.570828,35.3480734 349.990173,35.3480734 Z" fill="#00758F"></path>
		</g>
</svg>
